X:1
T:Title
%%score { ( 1 3 5 ) | ( 2 4 ) }
L:1/8
M:4/4
K:Eb
V:1 treble nm="Grand Piano"
V:3 treble 
V:5 treble 
V:2 bass 
V:4 bass 
V:1
 z4 z2[Q:1/4=100] EF | GGGA GFEG | [GB]2 [Ge]2 c2 c>c | B6 z2 |[M:3/4] F6[K:bass] | %5
[M:1/4] E[K:treble]F |[M:4/4] GGGA GFEG | [GB]2 [Ge]2 c2 c>c | B6 z2 |[M:3/4] [G,E]6 | %10
[M:1/4] [G,E][G,_DE] |[M:4/4] [CE][Ec][Ec][Ec] [Ec][Ec][CE][Ec] | B2 B2 B2 GB | %13
 [DB][DF][DF][DF] [DF][A,DF][G,E][B,DF] | [B,EG]2 [GB]2 [GB]2 EE | E[Ec][Ec][Ec] [Ec][Ec][CE][Ec] | %16
[M:3/4] B2 B2 B2 |[M:1/4] B>c |[M:4/4] B6 z2 | [G,E]6 z2 | e4 z4 | B4 B4 | c4 z4 | %23
[M:3/4] z2 z2 B2 |[M:1/4] EF |[M:4/4] GGGA GFEG | [GB]2 [Ge]2 c2 c>c | B6 z2 | %28
[M:7/4] [G,E]6 z2 z2 z4 |] %29
V:2
 z4 z2 [E,G,][E,A,E] | [E,B,E][E,B,E][E,B,E][E,CE] [E,B,E][E,A,E][E,G,][E,B,E] | %2
 [E,E]2 [E,E]2[K:treble] [A,EA]2 A>A | G6[K:bass] z2 |[M:3/4] D6 |[M:1/4] [G,B,][F,B,D] | %6
[M:4/4] [E,B,E][E,B,E][E,B,E][E,CE] [E,B,E][E,A,E][E,G,][E,B,E] | %7
 [E,E]2 [E,E]2[K:treble] [A,EA]2 A>A | G6[K:bass] z2 |[M:3/4] E,6 |[M:1/4] E,E, | %11
[M:4/4] [A,,A,][A,,A,][A,,A,][A,,A,] [A,,A,][A,,A,]A,,[A,,A,] | %12
 [E,G,E]2 [E,G,E]2 [E,G,E]2 [E,B,E][E,G,E] | [B,,F,][B,,B,][B,,B,][B,,B,] [B,,B,]B,,B,,B,, | %14
 E,2 [E,E]2 [E,E]2 [E,G,][E,G,_D] | [A,,A,][A,,A,][A,,A,][A,,A,] [A,,A,][A,,A,]A,,[A,,A,] | %16
[M:3/4] [E,G,E]2 [E,G,E]2 [E,G,E]2 |[M:1/4][K:treble] G>A |[M:4/4] G6[K:bass] z2 | E,6 z2 | %20
 [E,B,][E,B,][E,B,][E,B,] [E,B,]E,E,E, | E,E,B,,B,, [E,E][E,E] [E,E]2 | %22
 [A,EA][A,E][A,E][A,EA][K:bass] [F,E][F,C][K:treble][F,B,F][F,=A,F] | %23
[M:3/4] [B,F]2[K:bass] [F,=A,E]2 [B,D]2 |[M:1/4] [G,B,][F,B,D] | %25
[M:4/4] [E,B,E][E,B,E][E,B,E][E,CE] [E,B,E][E,A,E][E,G,][E,B,E] | %26
 [E,E]2 [E,E]2[K:treble] [A,EA]2 A>A | G6[K:bass] z2 |[M:7/4] E,6 z2 z2 z4 |] %29
V:3
 x8 | x8 | x8 | z2 E>E B,2 G>G |[M:3/4] z2[K:bass] z2 B,2 |[M:1/4] x[K:treble] x |[M:4/4] x8 | x8 | %8
 z2 E>E E2 [B,EG]>[A,DF] |[M:3/4] x6 |[M:1/4] x2 |[M:4/4] x8 | x8 | x8 | x8 | x8 |[M:3/4] x6 | %17
[M:1/4] x2 |[M:4/4] z2 E>E E2 [B,EG]>[A,DF] | x8 | GGG[Af] [Ge][CAc][EGB][B,EG] | %21
 [EG][EG][DF][DAc] GG G2 | z AAc [=Ac][Ae]dc |[M:3/4] d2 c2 z A, |[M:1/4] x2 |[M:4/4] x8 | x8 | %27
 z2 E>E E2 [B,EG]>[A,DF] |[M:7/4] x14 |] %29
V:4
 x8 | x8 | x4[K:treble] x4 | z2[K:bass] E,>E, E,2 E>E |[M:3/4] z2 B,,>B,, z2 |[M:1/4] x2 | %6
[M:4/4] x8 | x4[K:treble] x4 | z2[K:bass] E,>E, B,,2 B,,>B,, |[M:3/4] x6 |[M:1/4] x2 |[M:4/4] x8 | %12
 x8 | x8 | x8 | x8 |[M:3/4] x6 |[M:1/4][K:treble] x2 |[M:4/4] z2[K:bass] E,>E, B,,2 B,,>B,, | x8 | %20
 x8 | x8 | x4[K:bass] x2[K:treble] x2 |[M:3/4] x2[K:bass] x4 |[M:1/4] x2 |[M:4/4] x8 | %26
 x4[K:treble] x4 | z2[K:bass] E,>E, B,,2 B,,>B,, |[M:7/4] x14 |] %29
V:5
 x8 | x8 | x8 | x8 |[M:3/4] z2[K:bass] B,>B, z A, |[M:1/4] x[K:treble] x |[M:4/4] x8 | x8 | x8 | %9
[M:3/4] x6 |[M:1/4] x2 |[M:4/4] x8 | x8 | x8 | x8 | x8 |[M:3/4] x6 |[M:1/4] x2 |[M:4/4] x8 | x8 | %20
 x8 | x8 | x8 |[M:3/4] x6 |[M:1/4] x2 |[M:4/4] x8 | x8 | x8 |[M:7/4] x14 |] %29

